images/3233112.svg

<?xml version="1.0" encoding="UTF-8"?>
<svg xmlns="http://www.w3.org/2000/svg" xmlns:xlink="http://www.w3.org/1999/xlink" width="300pt" height="300pt" viewBox="0 0 300 300" version="1.1">
<defs>
<g>
<symbol overflow="visible" id="glyph0-0">
<path style="stroke:none;" d="M 0.546875 1.9375 L 0.546875 -7.75 L 6.046875 -7.75 L 6.046875 1.9375 Z M 1.171875 1.328125 L 5.4375 1.328125 L 5.4375 -7.140625 L 1.171875 -7.140625 Z M 1.171875 1.328125 "/>
</symbol>
<symbol overflow="visible" id="glyph0-1">
<path style="stroke:none;" d="M 4.328125 -7.28125 C 3.546875 -7.28125 2.921875 -6.984375 2.453125 -6.390625 C 1.992188 -5.804688 1.765625 -5.007812 1.765625 -4 C 1.765625 -2.988281 1.992188 -2.1875 2.453125 -1.59375 C 2.921875 -1.007812 3.546875 -0.71875 4.328125 -0.71875 C 5.117188 -0.71875 5.742188 -1.007812 6.203125 -1.59375 C 6.660156 -2.1875 6.890625 -2.988281 6.890625 -4 C 6.890625 -5.007812 6.660156 -5.804688 6.203125 -6.390625 C 5.742188 -6.984375 5.117188 -7.28125 4.328125 -7.28125 Z M 4.328125 -8.171875 C 5.453125 -8.171875 6.351562 -7.789062 7.03125 -7.03125 C 7.707031 -6.28125 8.046875 -5.269531 8.046875 -4 C 8.046875 -2.738281 7.707031 -1.726562 7.03125 -0.96875 C 6.351562 -0.21875 5.453125 0.15625 4.328125 0.15625 C 3.203125 0.15625 2.300781 -0.21875 1.625 -0.96875 C 0.957031 -1.71875 0.625 -2.726562 0.625 -4 C 0.625 -5.269531 0.957031 -6.28125 1.625 -7.03125 C 2.300781 -7.789062 3.203125 -8.171875 4.328125 -8.171875 Z M 4.328125 -8.171875 "/>
</symbol>
<symbol overflow="visible" id="glyph0-2">
<path style="stroke:none;" d="M 1.078125 -8.015625 L 2.546875 -8.015625 L 6.09375 -1.3125 L 6.09375 -8.015625 L 7.15625 -8.015625 L 7.15625 0 L 5.6875 0 L 2.125 -6.703125 L 2.125 0 L 1.078125 0 Z M 1.078125 -8.015625 "/>
</symbol>
<symbol overflow="visible" id="glyph0-3">
<path style="stroke:none;" d="M 1.078125 -8.015625 L 2.171875 -8.015625 L 2.171875 -4.734375 L 6.109375 -4.734375 L 6.109375 -8.015625 L 7.1875 -8.015625 L 7.1875 0 L 6.109375 0 L 6.109375 -3.8125 L 2.171875 -3.8125 L 2.171875 0 L 1.078125 0 Z M 1.078125 -8.015625 "/>
</symbol>
</g>
</defs>
<g id="surface38585">
<rect x="0" y="0" width="300" height="300" style="fill:rgb(100%,100%,100%);fill-opacity:1;stroke:none;"/>
<path style="fill:none;stroke-width:1.2;stroke-linecap:butt;stroke-linejoin:miter;stroke:rgb(0%,0%,0%);stroke-opacity:1;stroke-miterlimit:10;" d="M 35.25 147.015625 L 43.089844 158.832031 "/>
<path style="fill:none;stroke-width:1.2;stroke-linecap:butt;stroke-linejoin:miter;stroke:rgb(100%,0%,0%);stroke-opacity:1;stroke-miterlimit:10;" d="M 43.089844 158.832031 L 50.933594 170.644531 "/>
<path style="fill:none;stroke-width:1.2;stroke-linecap:butt;stroke-linejoin:miter;stroke:rgb(100%,0%,0%);stroke-opacity:1;stroke-miterlimit:10;" d="M 50.933594 170.644531 L 65.085938 169.761719 "/>
<path style="fill:none;stroke-width:1.2;stroke-linecap:butt;stroke-linejoin:miter;stroke:rgb(0%,0%,0%);stroke-opacity:1;stroke-miterlimit:10;" d="M 65.085938 169.761719 L 79.238281 168.878906 "/>
<path style=" stroke:none;fill-rule:nonzero;fill:rgb(100%,100%,100%);fill-opacity:1;" d="M 46.933594 164.144531 L 55.933594 164.144531 L 55.933594 177.144531 L 46.933594 177.144531 Z M 46.933594 164.144531 "/>
<g style="fill:rgb(100%,0%,0%);fill-opacity:1;">
  <use xlink:href="#glyph0-1" x="46.933594" y="174.045898"/>
</g>
<path style="fill:none;stroke-width:1.2;stroke-linecap:butt;stroke-linejoin:miter;stroke:rgb(0%,0%,0%);stroke-opacity:1;stroke-miterlimit:10;" d="M 79.238281 168.878906 L 91.859375 143.484375 "/>
<path style="fill:none;stroke-width:1.2;stroke-linecap:butt;stroke-linejoin:miter;stroke:rgb(0%,0%,0%);stroke-opacity:1;stroke-miterlimit:10;" d="M 86.476562 169.308594 L 96.574219 148.992188 "/>
<path style="fill:none;stroke-width:1.2;stroke-linecap:butt;stroke-linejoin:miter;stroke:rgb(0%,0%,0%);stroke-opacity:1;stroke-miterlimit:10;" d="M 94.917969 192.507812 L 79.238281 168.878906 "/>
<path style="fill:none;stroke-width:1.2;stroke-linecap:butt;stroke-linejoin:miter;stroke:rgb(0%,0%,0%);stroke-opacity:1;stroke-miterlimit:10;" d="M 91.859375 143.484375 L 120.164062 141.71875 "/>
<path style="fill:none;stroke-width:1.2;stroke-linecap:butt;stroke-linejoin:miter;stroke:rgb(0%,0%,0%);stroke-opacity:1;stroke-miterlimit:10;" d="M 120.164062 141.71875 L 135.847656 165.347656 "/>
<path style="fill:none;stroke-width:1.2;stroke-linecap:butt;stroke-linejoin:miter;stroke:rgb(0%,0%,0%);stroke-opacity:1;stroke-miterlimit:10;" d="M 116.171875 147.769531 L 128.71875 166.675781 "/>
<path style="fill:none;stroke-width:1.2;stroke-linecap:butt;stroke-linejoin:miter;stroke:rgb(0%,0%,0%);stroke-opacity:1;stroke-miterlimit:10;" d="M 135.847656 165.347656 L 123.222656 190.742188 "/>
<path style="fill:none;stroke-width:1.2;stroke-linecap:butt;stroke-linejoin:miter;stroke:rgb(0%,0%,0%);stroke-opacity:1;stroke-miterlimit:10;" d="M 123.222656 190.742188 L 94.917969 192.507812 "/>
<path style="fill:none;stroke-width:1.2;stroke-linecap:butt;stroke-linejoin:miter;stroke:rgb(0%,0%,0%);stroke-opacity:1;stroke-miterlimit:10;" d="M 119.976562 184.261719 L 97.335938 185.671875 "/>
<path style="fill:none;stroke-width:1.2;stroke-linecap:butt;stroke-linejoin:miter;stroke:rgb(0%,0%,0%);stroke-opacity:1;stroke-miterlimit:10;" d="M 123.222656 190.742188 L 131.066406 202.558594 "/>
<path style="fill:none;stroke-width:1.2;stroke-linecap:butt;stroke-linejoin:miter;stroke:rgb(0%,0%,100%);stroke-opacity:1;stroke-miterlimit:10;" d="M 131.066406 202.558594 L 138.90625 214.375 "/>
<path style="fill:none;stroke-width:1.2;stroke-linecap:butt;stroke-linejoin:miter;stroke:rgb(0%,0%,100%);stroke-opacity:1;stroke-miterlimit:10;" d="M 138.90625 214.375 L 153.058594 213.488281 "/>
<path style="fill:none;stroke-width:1.2;stroke-linecap:butt;stroke-linejoin:miter;stroke:rgb(0%,0%,0%);stroke-opacity:1;stroke-miterlimit:10;" d="M 153.058594 213.488281 L 167.210938 212.605469 "/>
<path style=" stroke:none;fill-rule:nonzero;fill:rgb(100%,100%,100%);fill-opacity:1;" d="M 130.90625 207.875 L 147.90625 207.875 L 147.90625 220.875 L 130.90625 220.875 Z M 130.90625 207.875 "/>
<g style="fill:rgb(0%,0%,100%);fill-opacity:1;">
  <use xlink:href="#glyph0-2" x="130.90625" y="217.776367"/>
  <use xlink:href="#glyph0-3" x="138.889648" y="217.776367"/>
</g>
<path style="fill:none;stroke-width:1.2;stroke-linecap:butt;stroke-linejoin:miter;stroke:rgb(0%,0%,0%);stroke-opacity:1;stroke-miterlimit:10;" d="M 167.210938 212.605469 L 175.054688 224.421875 "/>
<path style="fill:none;stroke-width:1.2;stroke-linecap:butt;stroke-linejoin:miter;stroke:rgb(0%,0%,100%);stroke-opacity:1;stroke-miterlimit:10;" d="M 175.054688 224.421875 L 182.894531 236.238281 "/>
<path style="fill:none;stroke-width:1.2;stroke-linecap:butt;stroke-linejoin:miter;stroke:rgb(0%,0%,0%);stroke-opacity:1;stroke-miterlimit:10;" d="M 174.339844 211.28125 L 180.613281 220.730469 "/>
<path style="fill:none;stroke-width:1.2;stroke-linecap:butt;stroke-linejoin:miter;stroke:rgb(0%,0%,100%);stroke-opacity:1;stroke-miterlimit:10;" d="M 180.613281 220.730469 L 186.886719 230.183594 "/>
<path style="fill:none;stroke-width:1.2;stroke-linecap:butt;stroke-linejoin:miter;stroke:rgb(0%,0%,100%);stroke-opacity:1;stroke-miterlimit:10;" d="M 179.835938 187.210938 L 173.523438 199.910156 "/>
<path style="fill:none;stroke-width:1.2;stroke-linecap:butt;stroke-linejoin:miter;stroke:rgb(0%,0%,0%);stroke-opacity:1;stroke-miterlimit:10;" d="M 173.523438 199.910156 L 167.210938 212.605469 "/>
<path style="fill:none;stroke-width:1.2;stroke-linecap:butt;stroke-linejoin:miter;stroke:rgb(0%,0%,100%);stroke-opacity:1;stroke-miterlimit:10;" d="M 182.894531 236.238281 L 197.046875 235.355469 "/>
<path style="fill:none;stroke-width:1.2;stroke-linecap:butt;stroke-linejoin:miter;stroke:rgb(0%,0%,0%);stroke-opacity:1;stroke-miterlimit:10;" d="M 197.046875 235.355469 L 211.199219 234.46875 "/>
<path style=" stroke:none;fill-rule:nonzero;fill:rgb(100%,100%,100%);fill-opacity:1;" d="M 178.894531 229.738281 L 186.894531 229.738281 L 186.894531 242.738281 L 178.894531 242.738281 Z M 178.894531 229.738281 "/>
<g style="fill:rgb(0%,0%,100%);fill-opacity:1;">
  <use xlink:href="#glyph0-2" x="178.894531" y="239.639648"/>
</g>
<path style="fill:none;stroke-width:1.2;stroke-linecap:butt;stroke-linejoin:miter;stroke:rgb(0%,0%,0%);stroke-opacity:1;stroke-miterlimit:10;" d="M 211.199219 234.46875 L 223.820312 209.074219 "/>
<path style="fill:none;stroke-width:1.2;stroke-linecap:butt;stroke-linejoin:miter;stroke:rgb(0%,0%,0%);stroke-opacity:1;stroke-miterlimit:10;" d="M 206.484375 228.960938 L 216.585938 208.644531 "/>
<path style="fill:none;stroke-width:1.2;stroke-linecap:butt;stroke-linejoin:miter;stroke:rgb(0%,0%,0%);stroke-opacity:1;stroke-miterlimit:10;" d="M 223.820312 209.074219 L 208.140625 185.445312 "/>
<path style="fill:none;stroke-width:1.2;stroke-linecap:butt;stroke-linejoin:miter;stroke:rgb(0%,0%,100%);stroke-opacity:1;stroke-miterlimit:10;" d="M 252.128906 207.308594 L 237.972656 208.191406 "/>
<path style="fill:none;stroke-width:1.2;stroke-linecap:butt;stroke-linejoin:miter;stroke:rgb(0%,0%,0%);stroke-opacity:1;stroke-miterlimit:10;" d="M 237.972656 208.191406 L 223.820312 209.074219 "/>
<path style="fill:none;stroke-width:1.2;stroke-linecap:butt;stroke-linejoin:miter;stroke:rgb(0%,0%,0%);stroke-opacity:1;stroke-miterlimit:10;" d="M 208.140625 185.445312 L 193.988281 186.328125 "/>
<path style="fill:none;stroke-width:1.2;stroke-linecap:butt;stroke-linejoin:miter;stroke:rgb(0%,0%,100%);stroke-opacity:1;stroke-miterlimit:10;" d="M 193.988281 186.328125 L 179.835938 187.210938 "/>
<path style="fill:none;stroke-width:1.2;stroke-linecap:butt;stroke-linejoin:miter;stroke:rgb(0%,0%,0%);stroke-opacity:1;stroke-miterlimit:10;" d="M 205.726562 192.28125 L 194.402344 192.988281 "/>
<path style="fill:none;stroke-width:1.2;stroke-linecap:butt;stroke-linejoin:miter;stroke:rgb(0%,0%,100%);stroke-opacity:1;stroke-miterlimit:10;" d="M 194.402344 192.988281 L 183.082031 193.695312 "/>
<path style="fill:none;stroke-width:1.2;stroke-linecap:butt;stroke-linejoin:miter;stroke:rgb(0%,0%,0%);stroke-opacity:1;stroke-miterlimit:10;" d="M 208.140625 185.445312 L 214.453125 172.746094 "/>
<path style="fill:none;stroke-width:1.2;stroke-linecap:butt;stroke-linejoin:miter;stroke:rgb(0%,0%,100%);stroke-opacity:1;stroke-miterlimit:10;" d="M 214.453125 172.746094 L 220.761719 160.046875 "/>
<path style=" stroke:none;fill-rule:nonzero;fill:rgb(100%,100%,100%);fill-opacity:1;" d="M 175.835938 180.710938 L 183.835938 180.710938 L 183.835938 193.710938 L 175.835938 193.710938 Z M 175.835938 180.710938 "/>
<g style="fill:rgb(0%,0%,100%);fill-opacity:1;">
  <use xlink:href="#glyph0-2" x="175.835938" y="190.612305"/>
</g>
<path style="fill:none;stroke-width:1.2;stroke-linecap:butt;stroke-linejoin:miter;stroke:rgb(0%,0%,100%);stroke-opacity:1;stroke-miterlimit:10;" d="M 220.761719 160.046875 L 234.914062 159.164062 "/>
<path style="fill:none;stroke-width:1.2;stroke-linecap:butt;stroke-linejoin:miter;stroke:rgb(0%,0%,0%);stroke-opacity:1;stroke-miterlimit:10;" d="M 234.914062 159.164062 L 249.066406 158.28125 "/>
<path style="fill:none;stroke-width:1.2;stroke-linecap:butt;stroke-linejoin:miter;stroke:rgb(0%,0%,100%);stroke-opacity:1;stroke-miterlimit:10;" d="M 220.761719 160.046875 L 212.921875 148.234375 "/>
<path style="fill:none;stroke-width:1.2;stroke-linecap:butt;stroke-linejoin:miter;stroke:rgb(0%,0%,0%);stroke-opacity:1;stroke-miterlimit:10;" d="M 212.921875 148.234375 L 205.082031 136.417969 "/>
<path style=" stroke:none;fill-rule:nonzero;fill:rgb(100%,100%,100%);fill-opacity:1;" d="M 216.761719 153.546875 L 224.761719 153.546875 L 224.761719 166.546875 L 216.761719 166.546875 Z M 216.761719 153.546875 "/>
<g style="fill:rgb(0%,0%,100%);fill-opacity:1;">
  <use xlink:href="#glyph0-2" x="216.761719" y="163.448242"/>
</g>
<path style="fill:none;stroke-width:1.2;stroke-linecap:butt;stroke-linejoin:miter;stroke:rgb(0%,0%,0%);stroke-opacity:1;stroke-miterlimit:10;" d="M 252.054688 159.769531 L 258.367188 147.070312 "/>
<path style="fill:none;stroke-width:1.2;stroke-linecap:butt;stroke-linejoin:miter;stroke:rgb(100%,0%,0%);stroke-opacity:1;stroke-miterlimit:10;" d="M 258.367188 147.070312 L 264.679688 134.371094 "/>
<path style="fill:none;stroke-width:1.2;stroke-linecap:butt;stroke-linejoin:miter;stroke:rgb(0%,0%,0%);stroke-opacity:1;stroke-miterlimit:10;" d="M 246.082031 156.796875 L 252.390625 144.097656 "/>
<path style="fill:none;stroke-width:1.2;stroke-linecap:butt;stroke-linejoin:miter;stroke:rgb(100%,0%,0%);stroke-opacity:1;stroke-miterlimit:10;" d="M 252.390625 144.097656 L 258.703125 131.402344 "/>
<path style="fill:none;stroke-width:1.2;stroke-linecap:butt;stroke-linejoin:miter;stroke:rgb(0%,0%,0%);stroke-opacity:1;stroke-miterlimit:10;" d="M 249.066406 158.28125 L 264.75 181.914062 "/>
<path style=" stroke:none;fill-rule:nonzero;fill:rgb(100%,100%,100%);fill-opacity:1;" d="M 257.691406 126.386719 L 266.691406 126.386719 L 266.691406 139.386719 L 257.691406 139.386719 Z M 257.691406 126.386719 "/>
<g style="fill:rgb(100%,0%,0%);fill-opacity:1;">
  <use xlink:href="#glyph0-1" x="257.691406" y="136.288086"/>
</g>
<path style="fill:none;stroke-width:1.2;stroke-linecap:butt;stroke-linejoin:miter;stroke:rgb(0%,0%,0%);stroke-opacity:1;stroke-miterlimit:10;" d="M 264.75 181.914062 L 258.4375 194.609375 "/>
<path style="fill:none;stroke-width:1.2;stroke-linecap:butt;stroke-linejoin:miter;stroke:rgb(0%,0%,100%);stroke-opacity:1;stroke-miterlimit:10;" d="M 258.4375 194.609375 L 252.128906 207.308594 "/>
<path style="fill:none;stroke-width:1.2;stroke-linecap:butt;stroke-linejoin:miter;stroke:rgb(0%,0%,0%);stroke-opacity:1;stroke-miterlimit:10;" d="M 257.511719 181.480469 L 252.464844 191.640625 "/>
<path style="fill:none;stroke-width:1.2;stroke-linecap:butt;stroke-linejoin:miter;stroke:rgb(0%,0%,100%);stroke-opacity:1;stroke-miterlimit:10;" d="M 252.464844 191.640625 L 247.414062 201.796875 "/>
<path style=" stroke:none;fill-rule:nonzero;fill:rgb(100%,100%,100%);fill-opacity:1;" d="M 248.128906 200.808594 L 256.128906 200.808594 L 256.128906 213.808594 L 248.128906 213.808594 Z M 248.128906 200.808594 "/>
<g style="fill:rgb(0%,0%,100%);fill-opacity:1;">
  <use xlink:href="#glyph0-2" x="248.128906" y="210.709961"/>
</g>
<path style="fill:none;stroke-width:1.2;stroke-linecap:butt;stroke-linejoin:miter;stroke:rgb(0%,0%,0%);stroke-opacity:1;stroke-miterlimit:10;" d="M 205.082031 136.417969 L 217.703125 111.023438 "/>
<path style="fill:none;stroke-width:1.2;stroke-linecap:butt;stroke-linejoin:miter;stroke:rgb(0%,0%,0%);stroke-opacity:1;stroke-miterlimit:10;" d="M 217.703125 111.023438 L 202.023438 87.394531 "/>
<path style="fill:none;stroke-width:1.2;stroke-linecap:butt;stroke-linejoin:miter;stroke:rgb(0%,0%,0%);stroke-opacity:1;stroke-miterlimit:10;" d="M 202.023438 87.394531 L 194.179688 75.578125 "/>
<path style="fill:none;stroke-width:1.2;stroke-linecap:butt;stroke-linejoin:miter;stroke:rgb(0%,0%,100%);stroke-opacity:1;stroke-miterlimit:10;" d="M 194.179688 75.578125 L 186.339844 63.761719 "/>
<path style="fill:none;stroke-width:1.2;stroke-linecap:butt;stroke-linejoin:miter;stroke:rgb(0%,0%,0%);stroke-opacity:1;stroke-miterlimit:10;" d="M 206.011719 81.339844 L 199.742188 71.886719 "/>
<path style="fill:none;stroke-width:1.2;stroke-linecap:butt;stroke-linejoin:miter;stroke:rgb(0%,0%,100%);stroke-opacity:1;stroke-miterlimit:10;" d="M 199.742188 71.886719 L 193.46875 62.4375 "/>
<path style="fill:none;stroke-width:1.2;stroke-linecap:butt;stroke-linejoin:miter;stroke:rgb(0%,0%,0%);stroke-opacity:1;stroke-miterlimit:10;" d="M 194.894531 88.71875 L 188.621094 79.269531 "/>
<path style="fill:none;stroke-width:1.2;stroke-linecap:butt;stroke-linejoin:miter;stroke:rgb(0%,0%,100%);stroke-opacity:1;stroke-miterlimit:10;" d="M 188.621094 79.269531 L 182.347656 69.816406 "/>
<path style=" stroke:none;fill-rule:nonzero;fill:rgb(100%,100%,100%);fill-opacity:1;" d="M 178.339844 57.261719 L 186.339844 57.261719 L 186.339844 70.261719 L 178.339844 70.261719 Z M 178.339844 57.261719 "/>
<g style="fill:rgb(0%,0%,100%);fill-opacity:1;">
  <use xlink:href="#glyph0-2" x="178.339844" y="67.163086"/>
</g>
</g>
</svg>

<svg xmlns="http://www.w3.org/2000/svg" xmlns:xlink="http://www.w3.org/1999/xlink" width="300pt" height="300pt" viewBox="0 0 300 300"><defs><symbol overflow="visible"><path d="M.547 1.938V-7.75h5.5v9.688zm.625-.61h4.266v-8.47H1.171zm0 0"/></symbol><symbol overflow="visible" id="a"><path d="M4.328-7.28c-.78 0-1.406.296-1.875.89-.46.585-.687 1.382-.687 2.39 0 1.012.226 1.813.687 2.406.47.586 1.094.875 1.875.875.79 0 1.414-.288 1.875-.874.457-.593.688-1.394.688-2.406 0-1.008-.23-1.805-.687-2.39-.46-.594-1.086-.89-1.875-.89zm0-.892c1.125 0 2.024.383 2.703 1.14C7.708-6.28 8.048-5.27 8.048-4c0 1.262-.34 2.273-1.016 3.03C6.353-.22 5.454.157 4.33.157S2.3-.22 1.625-.97c-.668-.75-1-1.757-1-3.03 0-1.27.332-2.28 1-3.03.676-.76 1.578-1.142 2.703-1.142zm0 0"/></symbol><symbol overflow="visible" id="b"><path d="M1.078-8.016h1.47l3.546 6.704v-6.704h1.062V0H5.688L2.124-6.703V0H1.078zm0 0"/></symbol><symbol overflow="visible" id="c"><path d="M1.078-8.016h1.094v3.282H6.11v-3.282h1.077V0H6.11v-3.813H2.17V0H1.078zm0 0"/></symbol></defs><g><path fill="#fff" d="M0 0h300v300H0z"/><path d="M35.25 147.016l7.84 11.816" stroke-width="1.2" stroke="#000" stroke-miterlimit="10" fill="none"/><path d="M43.09 158.832l7.844 11.813M50.934 170.645l14.152-.883" stroke-width="1.2" stroke="#f00" stroke-miterlimit="10" fill="none"/><path d="M65.086 169.762l14.152-.883" stroke-width="1.2" stroke="#000" stroke-miterlimit="10" fill="none"/><path d="M46.934 164.145h9v13h-9zm0 0" fill="#fff"/><use xlink:href="#a" x="46.934" y="174.046" fill="#f00"/><path d="M79.238 168.88l12.62-25.396M86.477 169.31l10.097-20.318M94.918 192.508l-15.68-23.63M91.86 143.484l28.304-1.765M120.164 141.72l15.684 23.628M116.172 147.77l12.547 18.906M135.848 165.348l-12.625 25.394M123.223 190.742l-28.305 1.766M119.977 184.262l-22.64 1.41M123.223 190.742l7.843 11.817" stroke-width="1.2" stroke="#000" stroke-miterlimit="10" fill="none"/><path d="M131.066 202.56l7.84 11.815M138.906 214.375l14.153-.887" stroke-width="1.2" stroke="#00f" stroke-miterlimit="10" fill="none"/><path d="M153.06 213.488l14.15-.883" stroke-width="1.2" stroke="#000" stroke-miterlimit="10" fill="none"/><path d="M130.906 207.875h17v13h-17zm0 0" fill="#fff"/><g fill="#00f"><use xlink:href="#b" x="130.906" y="217.776"/><use xlink:href="#c" x="138.89" y="217.776"/></g><path d="M167.21 212.605l7.845 11.817" stroke-width="1.2" stroke="#000" stroke-miterlimit="10" fill="none"/><path d="M175.055 224.422l7.84 11.816" stroke-width="1.2" stroke="#00f" stroke-miterlimit="10" fill="none"/><path d="M174.34 211.28l6.273 9.45" stroke-width="1.2" stroke="#000" stroke-miterlimit="10" fill="none"/><path d="M180.613 220.73l6.274 9.454M179.836 187.21l-6.313 12.7" stroke-width="1.2" stroke="#00f" stroke-miterlimit="10" fill="none"/><path d="M173.523 199.91l-6.312 12.695" stroke-width="1.2" stroke="#000" stroke-miterlimit="10" fill="none"/><path d="M182.895 236.238l14.152-.883" stroke-width="1.2" stroke="#00f" stroke-miterlimit="10" fill="none"/><path d="M197.047 235.355l14.152-.886" stroke-width="1.2" stroke="#000" stroke-miterlimit="10" fill="none"/><path d="M178.895 229.738h8v13h-8zm0 0" fill="#fff"/><use xlink:href="#b" x="178.895" y="239.64" fill="#00f"/><path d="M211.2 234.47l12.62-25.396M206.484 228.96l10.102-20.315M223.82 209.074l-15.68-23.63" stroke-width="1.2" stroke="#000" stroke-miterlimit="10" fill="none"/><path d="M252.13 207.31l-14.157.88" stroke-width="1.2" stroke="#00f" stroke-miterlimit="10" fill="none"/><path d="M237.973 208.19l-14.153.884M208.14 185.445l-14.152.883" stroke-width="1.2" stroke="#000" stroke-miterlimit="10" fill="none"/><path d="M193.988 186.328l-14.152.883" stroke-width="1.2" stroke="#00f" stroke-miterlimit="10" fill="none"/><path d="M205.727 192.28l-11.325.708" stroke-width="1.2" stroke="#000" stroke-miterlimit="10" fill="none"/><path d="M194.402 192.988l-11.32.707" stroke-width="1.2" stroke="#00f" stroke-miterlimit="10" fill="none"/><path d="M208.14 185.445l6.313-12.7" stroke-width="1.2" stroke="#000" stroke-miterlimit="10" fill="none"/><path d="M214.453 172.746l6.31-12.7" stroke-width="1.2" stroke="#00f" stroke-miterlimit="10" fill="none"/><path d="M175.836 180.71h8v13h-8zm0 0" fill="#fff"/><use xlink:href="#b" x="175.836" y="190.612" fill="#00f"/><path d="M220.762 160.047l14.152-.883" stroke-width="1.2" stroke="#00f" stroke-miterlimit="10" fill="none"/><path d="M234.914 159.164l14.152-.883" stroke-width="1.2" stroke="#000" stroke-miterlimit="10" fill="none"/><path d="M220.762 160.047l-7.84-11.813" stroke-width="1.2" stroke="#00f" stroke-miterlimit="10" fill="none"/><path d="M212.922 148.234l-7.84-11.816" stroke-width="1.2" stroke="#000" stroke-miterlimit="10" fill="none"/><path d="M216.762 153.547h8v13h-8zm0 0" fill="#fff"/><use xlink:href="#b" x="216.762" y="163.448" fill="#00f"/><path d="M252.055 159.77l6.312-12.7" stroke-width="1.2" stroke="#000" stroke-miterlimit="10" fill="none"/><path d="M258.367 147.07l6.313-12.7" stroke-width="1.2" stroke="#f00" stroke-miterlimit="10" fill="none"/><path d="M246.082 156.797l6.31-12.7" stroke-width="1.2" stroke="#000" stroke-miterlimit="10" fill="none"/><path d="M252.39 144.098l6.313-12.696" stroke-width="1.2" stroke="#f00" stroke-miterlimit="10" fill="none"/><path d="M249.066 158.28l15.684 23.634" stroke-width="1.2" stroke="#000" stroke-miterlimit="10" fill="none"/><path d="M257.69 126.387h9v13h-9zm0 0" fill="#fff"/><use xlink:href="#a" x="257.691" y="136.288" fill="#f00"/><path d="M264.75 181.914l-6.313 12.695" stroke-width="1.2" stroke="#000" stroke-miterlimit="10" fill="none"/><path d="M258.438 194.61l-6.31 12.7" stroke-width="1.2" stroke="#00f" stroke-miterlimit="10" fill="none"/><path d="M257.512 181.48l-5.047 10.16" stroke-width="1.2" stroke="#000" stroke-miterlimit="10" fill="none"/><path d="M252.465 191.64l-5.05 10.157" stroke-width="1.2" stroke="#00f" stroke-miterlimit="10" fill="none"/><path d="M248.13 200.81h8v13h-8zm0 0" fill="#fff"/><use xlink:href="#b" x="248.129" y="210.71" fill="#00f"/><path d="M205.082 136.418l12.62-25.395M217.703 111.023l-15.68-23.628M202.023 87.395l-7.843-11.817" stroke-width="1.2" stroke="#000" stroke-miterlimit="10" fill="none"/><path d="M194.18 75.578l-7.84-11.816" stroke-width="1.2" stroke="#00f" stroke-miterlimit="10" fill="none"/><path d="M206.012 81.34l-6.27-9.453" stroke-width="1.2" stroke="#000" stroke-miterlimit="10" fill="none"/><path d="M199.742 71.887l-6.273-9.45" stroke-width="1.2" stroke="#00f" stroke-miterlimit="10" fill="none"/><path d="M194.895 88.72l-6.274-9.45" stroke-width="1.2" stroke="#000" stroke-miterlimit="10" fill="none"/><path d="M188.62 79.27l-6.272-9.454" stroke-width="1.2" stroke="#00f" stroke-miterlimit="10" fill="none"/><path d="M178.34 57.262h8v13h-8zm0 0" fill="#fff"/><use xlink:href="#b" x="178.34" y="67.163" fill="#00f"/></g></svg>
